assets/home-grey/HomeGrey11.svg

<svg xmlns="http://www.w3.org/2000/svg" data-name="Layer 1" viewBox="0 0 128 128"><path d="M93.432 85.988a15.8 15.8 0 00-13.174 6.792V68.9a13.473 13.473 0 0012.029-13.413V37.769a13.571 13.571 0 00-27.142 0v17.718A13.471 13.471 0 0077.173 68.9v23.879a16.048 16.048 0 00-26.346 0v-13.6a13.473 13.473 0 0012.028-13.411V48.05a13.571 13.571 0 00-27.142 0v17.718a13.471 13.471 0 0012.028 13.415v13.6a16.24 16.24 0 00-29.441 9.47 1.549 1.549 0 001.549 1.549h88.3a1.549 1.549 0 001.549-1.549 16.266 16.266 0 00-16.266-16.265zM71.32 62.883a10.443 10.443 0 01-3.077-7.4V37.769a10.473 10.473 0 0120.947 0v17.718A10.423 10.423 0 0180.258 65.8v-9.958l3.268-3.267a1.544 1.544 0 10-2.178-2.19l-1.09 1.09v-4.847a1.543 1.543 0 10-3.085 0v10.931l-1.084-1.084a1.548 1.548 0 10-2.19 2.19l3.274 3.273V65.8a10.453 10.453 0 01-5.853-2.917zM41.888 73.164a10.443 10.443 0 01-3.078-7.4V48.05a10.474 10.474 0 0120.947 0v17.718a10.424 10.424 0 01-8.931 10.317V67.1l3.274-3.278a1.548 1.548 0 00-2.19-2.19l-1.084 1.084v-5.807a1.543 1.543 0 00-3.086 0V68.812l-1.09-1.09a1.544 1.544 0 10-2.178 2.19l3.268 3.268v2.9a10.452 10.452 0 01-5.852-2.916zm-7.32 27.54H21.491a13.169 13.169 0 0126.154 0zM64 100.7H50.923a13.168 13.168 0 0126.154 0zm29.432 0H80.355a13.169 13.169 0 0126.154 0z"/></svg>

<svg id="Layer_1" data-name="Layer 1" xmlns="http://www.w3.org/2000/svg" viewBox="0 0 128 128"><title>Artboard 11</title><path d="M93.432,85.988A15.8,15.8,0,0,0,80.258,92.78V68.9A13.473,13.473,0,0,0,92.287,55.487V37.769a13.571,13.571,0,0,0-27.142,0V55.487A13.471,13.471,0,0,0,77.173,68.9V92.779a16.048,16.048,0,0,0-26.346,0v-13.6A13.473,13.473,0,0,0,62.855,65.768V48.05a13.571,13.571,0,0,0-27.142,0V65.768A13.471,13.471,0,0,0,47.741,79.183v13.6A16.24,16.24,0,0,0,18.3,102.253a1.549,1.549,0,0,0,1.549,1.549h88.3a1.549,1.549,0,0,0,1.549-1.549A16.266,16.266,0,0,0,93.432,85.988ZM71.32,62.883a10.443,10.443,0,0,1-3.077-7.4V37.769a10.473,10.473,0,0,1,20.947,0V55.487A10.423,10.423,0,0,1,80.258,65.8V55.842l3.268-3.267a1.544,1.544,0,1,0-2.178-2.19l-1.09,1.09V46.628a1.543,1.543,0,1,0-3.085,0V57.559l-1.084-1.084a1.548,1.548,0,1,0-2.19,2.19l3.274,3.273V65.8A10.453,10.453,0,0,1,71.32,62.883ZM41.888,73.164a10.443,10.443,0,0,1-3.078-7.4V48.05a10.474,10.474,0,0,1,20.947,0V65.768a10.424,10.424,0,0,1-8.931,10.317V67.1L54.1,63.822a1.548,1.548,0,0,0-2.19-2.19l-1.084,1.084V56.909a1.543,1.543,0,0,0-3.086,0v9.526c0,.009,0,.017,0,.026v2.351l-1.09-1.09a1.544,1.544,0,1,0-2.178,2.19l3.268,3.268v2.9A10.452,10.452,0,0,1,41.888,73.164Zm-7.32,27.54H21.491a13.169,13.169,0,0,1,26.154,0ZM64,100.7H50.923a13.168,13.168,0,0,1,26.154,0Zm29.432,0H80.355a13.169,13.169,0,0,1,26.154,0Z"/></svg>
